!!!!SEGMENT: 024-1-Sm-004.krn
!!!COM: Chopin, Fryderyk
!!!OTL: Mazurka No. 4.
!!!OPS: Op. 24
!!!PTL: Quatre Mazurkas
!!!PPR: M. Schlesinger
!!!PPP: Paris
!!!NIFC-rismID: 1001066063
!!!NIFC-shelfmark: PL-Wbfc 6594/n
!!!OMD: Moderato
!!!OMD: [quarter] = 132
**kern	**kern	**fing	**dynam
*part1	*part1	*	*part1
*staff2	*staff1	*	*
*clefF4	*clefG2	*	*
*k[b-e-a-d-g-]	*k[b-e-a-d-g-]	*	*
*b-:	*b-:	*	*
*M3/4	*M3/4	*	*
*MM132	*MM132	*	*
*>[A,B,B1,B,B2,C,C1,C,C2,D]	*>[A,B,B1,B,B2,C,C1,C,C2,D]	*	*
*>A	*>A	*	*
*	*^	*	*
4r	4ryy	(<[>4f\	.	p
=1	=1	=1	=1	=1
2.r	(>2ff	4.f]	.	.
.	.	4f	.	.
.	4ff	.	.	.
.	.	[>8f	.	.
=2	=2	=2	=2	=2
2.r	2een	4.f]	.	.
.	.	4f#	.	.
.	4ee	.	.	.
.	.	[>8f#	.	.
=3	=3	=3	=3	=3
2.r	2ee-X	4.f#X]	.	.
.	.	4g-	.	.
.	4ee-	.	.	.
.	.	[>8g-	.	.
=4	=4	=4	=4	=4
2.r	2ddn	4.g-]	.	.
.	.	4g#	.	.
.	4dd	.	.	.
.	.	[>8g#	.	.
!	!	!LO:TX:a:t=P:problem: ligatura g# zaczyna się obrócona do góry a kończy obrócona do dołu	!	!
!!LO:LB:g=original
=5	=5	=5	=5	=5
*ped	*	*	*	*
!	!	!LO:TX:B:t=poco a poco	!	!
4FF	2dd-X^>	4.g#X])	.	.
4e- 4F	.	.	.	.
.	.	4an	.	.
*Xped	*	*	*	*
4e- 4F	[>4dd-^>	.	.	.
.	.	8a	.	.
=6	=6	=6	=6	=6
4BB-	2dd-.])	(>8.anL	.	.
.	.	16b-Jk)	.	.
4d- 4F	.	4b-'>	.	.
4d- 4Gn 4E-	.	[>4b-^>	.	.
=7	=7	=7	=7	=7
!	!LO:TX:t=cresc_:problem:dynamics with extention lines	!	!	!
!	!	!	!	!LO:HP:b:B:t=cresc:ext=ud
*ped	*	*	*	*
4AA-	2ff	4.b-]	.	<
4g- 4A-	.	.	.	.
.	.	4cc	.	.
*Xped	*	*	*	*
4g- 4A-	[>4ff	.	.	.
.	.	8cc	.	.
=8	=8	=8	=8	=8
4D-	2ff.]	(>8.ccL	.	.
.	.	16dd-Jk)	.	.
4f 4A-	.	4dd-'>	.	.
4f 4B- 4Gn	.	[>4dd-^<	.	.
=9	=9	=9	=9	=9
*ped	*	*	*	*
4C	(>2aa-	4.dd-]	.	.
*clefG2	*	*	*	*
4b- 4f 4c	.	.	.	.
.	.	4een	.	.
*Xped	*	*	*	*
4b- 4gn 4c	[>4aa-	.	.	.
.	.	8ee	.	.
=10	=10	=10	=10	=10
*^	*	*	*	*
4ryy	N(>2.F	2aa-])	(>8.eenL	.	.
*ped	*	*	*	*	*
.	.	.	16ffJk)	.	.
4a- 4cN)	.	.	4ff	.	.
*Xped	*	*	*	*	*
4a- 4c	.	4ryy	4fff^< 4ff	.	[[
*v	*v	*	*	*	*
*clefF4	*	*	*	*
!!LO:LB:g=original
=11	=11	=11	=11	=11
*ped	*	*	*	*
4FF'<	2aanX	(>8.fffL 8.ff	.	ff
.	.	16ggg-Jk 16gg-)	.	.
*clefG2	*	*	*	*
(4an 4e- 4c	.	4ggg-'> 4gg-'>	.	.
*Xped	*	*	*	*
4cc 4e-)	4ryy	4an^<	.	.
*	*v	*v	*	*
*clefF4	*	*	*
=12	=12	=12	=12
*ped	*	*	*
4BB-'<	(>4.ccc 4.cc	.	>
4d- 4F	.	.	.
.	8bb-L 8b-	.	.
*Xped	*	*	*
4d- 4F	8a-X	.	.
.	8g-J)	.	]
=13	=13	=13	=13
*	*^	*	*
*ped	*	*	*	*
4BB-'	(>4.dd-	4.f	.	p
4e- 4F	.	.	.	.
.	8anL	8g-L	.	.
*Xped	*	*	*	*
4e- 4F	8dd-	8f	.	.
.	8aJ)	8e-J	.	.
=14	=14	=14	=14	=14
4BB-'<	(>8.anL	8.e-L	.	.
.	16b-Jk	16d-Jk	.	.
4B- 4F	4b-)	4d-	.	.
4d- 4E-	4b-^>	4gn	.	.
=15	=15	=15	=15	=15
*ped	*	*	*	*
4AA-'<	(>4.ff	4.a-	.	<
4g- 4A-	.	.	.	.
.	8ccL	8b--L	.	.
*Xped	*	*	*	*
4g- 4A-	8ff	8a-	.	.
.	8ccJ	8g-J	.	.
!!LO:LB:g=original
=16	=16	=16	=16	=16
4D-	8.ccL	8.g-^<L	.	.
.	16dd-Jk	16fJk	.	.
4d- 4A-	4dd-)	4f	.	.
4f 4Gn	4dd-^>	4bn	.	.
=17	=17	=17	=17	=17
*ped	*	*	*	*
4C'<	(>4.aa-	4.cc	.	.
*clefG2	*	*	*	*
4b- 4c	.	.	.	.
.	8eenL	8dd-XL	.	.
*Xped	*	*	*	*
4b- 4c	8aa- 8cc	8cc	.	.
.	8eeJ	8b-J	.	.
*clefF4	*	*	*	*
=18	=18	=18	=18	=18
*^	*	*	*	*
2F\	4ryy	8.eenL	8.b-^<L	.	.
.	.	16ffJk	16anJk	.	.
.	4f 4c/	4ff)	4a'>	.	.
4an 4e- 4c/	4ryy	4ryy	(>4fff^< 4ff^<	.	.
*v	*v	*	*	*	*
*	*v	*v	*	*
=19	=19	=19	=19
*ped	*	*	*
4FF	8.aaa-XL 8.aa-X	.	ff
.	16ggg-Jk 16gg-)	.	.
*clefG2	*	*	*
4cc^< 4an^< 4e-^< 4c^<	4ggg-'> 4gg-'>	.	.
*Xped	*	*	*
.	.	.	.
*clefF4	*	*	*
!	!	!	!LO:DY:b=2
4e- 4c 4F	4an^<	.	p
=20	=20	=20	=20
4BB-/	[>2.b-	.	.
4d- 4F	.	.	.
4d- 4G-X 4E-	.	.	.
=21!|:	=21!|:	=21!|:	=21!|:
*>B	*>B	*	*
!	!LO:TX:b:t=dol	!	!
4AA-'<	8b-L]	.	.
.	16r	.	.
.	(<16a-k 16g-	.	.
4A- 4E-	8c	.	.
.	8a-J 8g-	.	.
4c 4A- 4E-	4ee-^>)\	.	.
!!LO:LB:g=original
=22	=22	=22	=22
*ped	*	*	*
4DD-	8b-'<L	.	.
.	16r	.	.
.	(<16a-k 16f	.	.
4A- 4F	8d-	.	.
.	8a-J 8f	.	.
*Xped	*	*	*
4d- 4A- 4F	4ff^>)\	.	.
=23	=23	=23	=23
*	*^	*	*
*ped	*	*	*	*
4AA-	8b-L	4ryy	.	.
.	16r	.	.	.
.	(<16a-k 16g-	.	.	.
4A- 4E-	8c	4c	.	.
.	8a-J 8g-	.	.	.
*Xped	*	*	*	*
4c 4A- 4E-	4gg-^>)\	4ryy	.	.
*	*v	*v	*	*
=24	=24	=24	=24
.	8qf 8qcc- 8qdd-/	.	.
*ped	*	*	*
4D-	[>4bb-	.	.
4f 4c- 4A-	8bb-L]	.	.
.	16r	.	.
!	!LO:TX:a:t=scherz	!	!
.	(>16aa-k	.	.
*Xped	*	*	*
(4>Dn	8.cc-^<)	.	.
.	(>16aa-Jk	.	.
=25	=25	=25	=25
4E-)	8..b-L)	.	.
.	(>32aa-kk	.	.
4e- 4B- 4G-	8..b-)	.	.
.	(>32aa-kk	.	.
!	!LO:N:vis=8.	!	!
(<4GG-	8..b-)	.	.
.	(>32gg-Jkk	.	.
=26	=26	=26	=26
4AA-'<)	8..b--L)	.	.
.	(>32gg-kk	.	.
4d- 4F	8..a-)	.	.
.	(>32gg-kk	.	.
4d- 4F	8..a-)	.	.
.	(>32ffJkk	.	.
!!LO:PB:g=original
=27	=27	=27	=27
*ped	*	*	*
4AA-'<	8..gnL)	.	.
.	(>32ffkk	.	.
4c 4A- 4E-	8..g-)	.	.
.	(>32ffkk	.	.
*Xped	*	*	*
4c 4A- 4E-	8..g-)	.	.
.	N(>32ee-Jkk	.	.
=28	=28	=28	=28
*^	*^	*	*
4rc	2D-	(8..fL	4fN)\	.	.
.	.	32ee-Jkk	.	.	.
4d- 4A-	.	12dd-L	4f	.	.
.	.	12ee-	.	.	.
!	!	!LO:TX:b:t=P:problem:'3' pod nutami	!	!	!
.	.	12dd-J	.	.	.
(>4GGn/	4ryy	8ccL	4en^<	.	.
.	.	16r	.	.	.
.	.	16b-Jk	.	.	.
*v	*v	*	*	*	*
=29	=29	=29	=29	=29
*ped	*	*	*	*
4AA-)	8b-'>L)	4c	.	.
.	16r	.	.	.
.	(<16a-k 16g-	.	.	.
4A- 4E-	8c	4c	.	.
.	8a-J 8g-	.	.	.
*Xped	*	*	*	*
4c 4A- 4E-	4ee-^>)\	4ryy	.	.
*	*v	*v	*	*
=30	=30	=30	=30
*ped	*	*	*
4DD-	8b-'<L	.	.
.	16r	.	.
.	(<16a-k 16f	.	.
4A- 4F	8d-	.	.
.	8a-J 8f	.	.
*Xped	*	*	*
4d- 4A- 4F	4ff^>)\	.	.
=31	=31	=31	=31
*ped	*	*	*
4AA-	8b-'<L	.	.
.	16r	.	.
.	(<16a-k 16g-	.	.
4A- 4E-	8c	.	.
.	8a-J 8g-	.	.
*Xped	*	*	*
4c 4A- 4E-	4gg-^>)\	.	.
!!LO:LB:g=original
=32	=32	=32	=32
.	8qf/ 8qcc-/ 8qdd-/	.	f
*ped	*	*	*
4D-	[>4bb-^<	.	.
4f 4c- 4A-	8bb-L]	.	.
.	16r	.	.
.	(>16aa-k	.	.
*Xped	*	*	*
(>4Dn	8.cc-^<)	.	.
.	(>16aa-Jk	.	.
=33	=33	=33	=33
4E-)	8..b-L)	.	>
.	(>32aa-kk	.	.
4e- 4B- 4G-	8..b-)	.	.
.	(>32aa-kk	.	.
(<4GG-	8..b-)	.	.
.	(>32gg-Jkk	.	.
=34	=34	=34	=34
4AA-)	8..b--L)	.	.
.	(>32gg-kk	.	.
4d- 4F	8..a-)	.	.
.	(>32gg-kk	.	.
4d- 4F	8..a-)	.	.
.	(>32ffJkk	.	.
=35	=35	=35	=35
!	!LO:TX:a:t=accellerando	!	!
4AA-	8..gnL)	.	.
.	(>32eenkk	.	.
4c 4E-	8..g-)	.	.
.	(>32ee-kk	.	.
4r	8..f)	.	.
.	(>32ddnJkk	.	.
=36	=36	=36	=36
!	!LO:TX:a:t=ritenuto	!	!
2.r	8..f-\L)	.	.
.	(>32dd-Xkk	.	.
.	8..e-X)	.	.
.	(>32dd-kk	.	.
.	8..e-)	.	.
.	(<[>32dd-Jkk	.	.
!!LO:LB:g=original
=37	=37	=37	=37
*	*^	*	*
!	!LO:TX:a:t=a tempo	!	!	!
*ped	*	*	*	*
4FF'<	&(>4.dd-^>]	4.e-)	.	.
4c 4F	.	.	.	.
.	8anL	8g-L	.	.
*Xped	*	*	*	*
4c 4F	8dd-	8f	.	.
.	8aJ	8e-J	.	.
=38	=38	=38	=38	=38
4BB-'<	8.anL	8.e-^<L	.	.
.	16b-Jk	16d-Jk	.	.
4B- 4F	4b-'>&)	4d-	.	.
!	!LO:TX:t=cres_:problem:dynamics with extention lines	!	!	!
!	!	!	!	!LO:HP:b:t=cres:ext=ud
4d- 4E-	4b-^>	4gn	.	<
=39	=39	=39	=39	=39
*ped	*	*	*	*
4AA-'<	(4.ff	4.a-	.	.
4g- 4A-	.	.	.	.
.	8ccL	8b--L	.	.
*Xped	*	*	*	*
4g- 4A-	8ff	8a-	.	.
.	8ccJ	8g-J	.	.
=40	=40	=40	=40	=40
4D-	8.ccL	8.g-L	.	.
.	16dd-Jk	16fJk	.	.
4d- 4A-	4dd-'>)	4f	.	.
4f 4Gn	(>4dd-^>	4bn	.	.
=41	=41	=41	=41	=41
*ped	*	*	*	*
4C	4.aa-	4.cc	.	.
*clefG2	*	*	*	*
4b- 4c	.	.	.	.
.	8eenL	8dd-L	.	.
4b- 4c	8aa-	8cc	.	.
*Xped	*	*	*	*
.	8eeJ	8b-J	.	.
=42	=42	=42	=42	=42
*^	*	*	*	*
4r	N(<2.F	8.eenL	8.b-L	.	.
.	.	16ffJk	16anJk	.	.
4f 4c	.	4ff'>)	4a	.	[
4an 4cN)	.	4ryy	(>[>4fff [<4ff	.	ff
*v	*v	*	*	*	*
*	*v	*v	*	*
*clefF4	*	*	*
!!LO:LB:g=original
=43	=43	=43	=43
*	*	*	*^
*ped	*	*	*	*
4FF'	8.fffL] 8.ff]	.	>	.
.	16ggg-Jk 16gg-	.	]	.
*clefG2	*	*	*	*
4an^> 4e-^> 4c^<	4ggg- 4gg-)	.	.	.
*Xped	*	*	*	*
!	!	!	!	!LO:DY:b=2
4cc 4e-	(<4an^<	.	p	p
*clefF4	*	*	*	*
*	*	*	*v	*v
=44	=44	=44	=44
*ped	*	*	*
4BB-'<	4.cc/	.	>
4d- 4F	.	.	.
.	8b-/	.	.
*Xped	*	*	*
4d- 4F	(<12b-L	.	.
!	!LO:TX:b:t=P:problem:'3' pod nutami	!	!
.	12a-	.	.
.	12g-J))	.	]
=45	=45	=45	=45
*	*^	*	*
*ped	*	*	*	*
4BB-'<	(>4.dd-	8fL	.	.
.	.	8qa-/	.	.
.	.	8g-	.	.
4e- 4c 4F	.	8f	.	.
!	!LO:TX:a:t=piu agitato e stretto:dur=4qe:ext=s:problem:text with extention lines	!	!	!
.	8anL	8g-	.	.
*Xped	*	*	*	*
4e- 4c 4F	8dd-	8f	.	.
.	8aJ	8e-J	.	.
=46	=46	=46	=46	=46
4BB-'<	8.anL	8.e-^<L	.	.
.	16b-Jk	16d-Jk	.	.
4B- 4F	4b-)	4d-	.	.
4d- 4E-	(12b-L	4gn^<	.	.
.	12cc	.	.	.
!	!LO:TX:b:t=P:problem:'3' pod nutami	!	!	!
.	12b-J)	.	.	.
=47	=47	=47	=47	=47
*ped	*	*	*	*
4AA-	(>4.ff	8a-L	.	<
.	.	8qcc-/	.	.
.	.	8b--	.	.
4g- 4c 4A-	.	8a-	.	.
.	8ccnL	8b--	.	.
*Xped	*	*	*	*
4g- 4c 4A-	8ff	8a-	.	.
.	8ccJ	8g-J	.	.
!!LO:LB:g=original
=48	=48	=48	=48	=48
4D-	8.ccL	8.g-^<L	.	.
.	16dd-Jk	16fJk	.	.
4d- 4A-	4dd-)	4f	.	.
4f 4Gn	(>12dd-L	4bn^<	.	.
.	12ee-	.	.	.
.	12dd-J)	.	.	.
=49	=49	=49	=49	=49
*ped	*	*	*	*
4C	(>4.aa-	8ccL	.	.
.	.	8qee-/	.	.
.	.	8dd-	.	.
*clefG2	*	*	*	*
4b- 4gn 4c	.	8cc	.	.
.	8eenL	8dd-	.	.
*Xped	*	*	*	*
4b- 4g 4c	8aa-	8cc	.	.
.	8eeJ	8b-J	.	.
*clefF4	*	*	*	*
=50	=50	=50	=50	=50
*^	*	*	*	*
4r	2F	8.eenL	8.b-L	.	.
.	.	16ffJk)	16anJk	.	.
4f 4c	.	4ff	4a	.	.
4ryy	4an 4c 4F	4ryy	(>4fff 4ff	.	.
*v	*v	*	*	*	*
*	*v	*v	*	*
=51	=51	=51	=51
*ped	*	*	*
4FF'<	8.aaa-L 8.aa-	.	ff
.	16ggg-Jk 16gg-	.	.
*clefG2	*	*	*
4cc 4an 4e- 4c	4ggg- 4gg-)	.	.
*Xped	*	*	*
*clefF4	*	*	*
4e- 4c 4F	(>4an\	.	.
=52	=52	=52	=52
*>B1	*>B1	*	*
4BB-/	[>2.b-)	.	.
!!LO:TX:a:B:t=1a.
4d- 4F	.	.	.
4d- 4G-X 4E-	.	.	.
=53:|!	=53:|!	=53:|!	=53:|!
*>B2	*>B2	*	*
4BB-/	2b-]	.	.
!!LO:TX:a:B:t=2a.
4d- 4F	.	.	.
[>4f	[>4ff^<	.	p
!	!LO:TX:a:t=P:problem:w źródle brak końca ligatury do 4ff	!	!
!!LO:PB:g=original
=54!|:	=54!|:	=54!|:	=54!|:
*>C	*>C	*	*
!	!LO:TX:a:t=legato	!	!
!	!LO:TX:b:t=sotto voce	!	!
4f]	(>4ff]	.	.
4.g-	4.gg-	.	.
8d-	8dd-	.	.
=55	=55	=55	=55
8enL	8eenL	.	.
8cJ	8ccJ	.	.
4B-	4b-	.	.
4B-	4b-	.	.
=56	=56	=56	=56
8fL	8ffL	.	.
8a-J	8aa-J	.	.
4g-	4gg-	.	.
8g-L	8gg-L	.	.
8d-J	8dd-J	.	.
=57	=57	=57	=57
8enL	8eenL	.	.
8cJ	8ccJ	.	.
2B-	[>2b-)	.	.
=58	=58	=58	=58
4c 4Gn 4C	4b-^<] 4en^< 4B-^<	.	.
4c 4F 4C	4an 4f 4An	.	.
4c 4F 4C	(<4a 4f 4A	.	.
=59	=59	=59	=59
4c 4Gn 4C	8ccL 8en	.	.
.	8b-J 8B-	.	.
4c 4F 4C	4an 4f 4An	.	.
4c 4F 4C	4a 4f 4A)	.	.
=60	=60	=60	=60
!	!LO:S:s=1:note:problem:note-level slur	!	!
4c 4Gn 4C	(<4b- 4e- 4B-	.	.
4c 4F 4C	4an 4f 4An)	.	.
4c 4F 4C	(>4a 4f 4A	.	.
!!LO:LB:g=original
=61	=61	=61	=61
*>C1	*>C2	*	*
*	*^	*	*
!	!	!	!	!LO:HP:a
4c 4Gn 4C	8an^L	4en 4B-	.	.
!!LO:TX:a:B:t=1a.
.	8gnJ	.	.	.
2c 2F	2f)	2An	.	.
=62:|!	=62:|!	=62:|!	=62:|!	=62:|!
*>C2	*>C2	*	*	*
4c 4G- 4C	(>8an^>L	4en 4B-	.	.
!!LO:TX:a:B:t=2a.
.	8gnJ	.	.	.
4c 4F	4f)	4An	.	.
!	!LO:TX:a:t=con anima	!	!	!
4r	[<4f^>	4ryy	.	f
*	*v	*v	*	*
=63	=63	=63	=63
*>D	*>D	*	*
*ped	*	*	*
4GG-X	(<12fL]	.	.
.	12g-X	.	.
!	!LO:TX:b:t=P:problem:'3' pod nutami	!	!
.	12fJ)	.	.
4B- 4E-	(<8e-L	.	.
.	8f	.	.
4B- 4E-	8g-	.	.
.	8a-J	.	.
=64	=64	=64	=64
*ped	*	*	*
4GG-	8cc)\	.	.
.	8r	.	.
4B- 4E-	(>2b-\	.	.
*Xped	*	*	*
4B- 4E-	.	.	.
=65	=65	=65	=65
*ped	*	*	*
4AA-'<	8A-L)	.	.
.	16r	.	.
.	(<16g-Jk	.	.
4c 4E-	(<12g-L	.	.
.	12a-	.	.
!	!LO:TX:b:t=P:problem:'3' pod nutami	!	!
.	12g-J)	.	.
4c 4E-	8fL	.	.
.	8e-J	.	.
=66	=66	=66	=66
*ped	*	*	*
4DD-	8f)	.	.
.	8r	.	.
4A- 4F	4d-^<	.	.
*Xped	*	*	*
4A- 4F	4r	.	.
!!LO:LB:g=original
=67	=67	=67	=67
*ped	*	*	*
4GG-'<	(<12fL	.	pp
.	12g-	.	.
!	!LO:TX:b:t=P:problem:'3' pod nutami	!	!
.	12fJ	.	.
4B-- 4E-	8e-L	.	.
.	8f	.	.
*Xped	*	*	*
4B-- 4E-	8g-	.	.
.	8a-J	.	.
=68	=68	=68	=68
*ped	*	*	*
4GG-'<	8cc-/)	.	.
.	8r	.	.
4d- 4E-	(<2b--^>/	.	.
*Xped	*	*	*
4d- 4E-	.	.	.
=69	=69	=69	=69
*ped	*	*	*
4AA-	8A-L)	.	.
.	16r	.	.
.	(<16g-Jk	.	.
4c 4G- 4E-	12g-L	.	.
.	12a-	.	.
!	!LO:TX:b:t=P:problem:'3' pod nutami	!	!
.	12g-J	.	.
*Xped	*	*	*
4c 4G- 4E-	8f-L	.	.
.	8e-J	.	.
=70	=70	=70	=70
*ped	*	*	*
4DD-	8f-)	.	.
.	8r	.	.
4A- 4F-	4d-^<	.	.
*Xped	*	*	*
4A- 4F-	4r	.	.
=71	=71	=71	=71
*ped	*	*	*
4AAn'<	(<12g#L	.	f
.	12an	.	.
!	!LO:TX:b:t=P:problem:'3' pod nutami	!	!
.	12g#J	.	.
4en 4c# 4F#	8f#L	.	.
.	8g#	.	.
4e 4c# 4F#	8a	.	.
.	8bnJ	.	.
!!LO:LB:g=original
=72	=72	=72	=72
!	!LO:TX:a:t=P:problem:łuk kończy się obrócony	!	!
4AAn	8dd#)	.	.
.	8r	.	.
4en 4c# 4F#	(>2cc#^<	.	.
*Xped	*	*	*
4e 4c# 4F#	.	.	.
=73	=73	=73	=73
*ped	*	*	*
4BBn'<	8Bn'<L)	.	.
.	16r	.	.
.	16anJk	.	.
4d# 4An 4F#	(<(<12aL	.	.
.	12bn	.	.
!	!LO:TX:b:t=P:problem:'3' pod nutami	!	!
.	12aJ)	.	.
*Xped	*	*	*
4d# 4A 4F#	8g#L	.	.
.	8f#J	.	.
=74	=74	=74	=74
*ped	*	*	*
4EEn'<	8g#'<)	.	.
.	8r	.	.
4Bn 4G#	4en^<	.	.
*Xped	*	*	*
4B 4G#	4r	.	.
=75	=75	=75	=75
*ped	*	*	*
4GG-'<	(<12f-L	.	pp
!	!LO:TX:a:t=dolcissimo	!	!
.	12g-	.	.
!	!LO:TX:b:t=P:problem:'3' pod nutami	!	!
.	12f-J	.	.
4B-- 4E-	8e-L	.	<
.	8f-	.	.
*Xped	*	*	*
4B-- 4E-	8g-	.	.
.	8a-J	.	[
=76	=76	=76	=76
*	*	*	*^
*ped	*	*	*	*
!	!	!	!	!LO:DY:b=2
4GG-'<	2cc-	.	>	p
4d- 4E-	.	.	.	.
*Xped	*	*	*	*
4d- 4E-	(<4b--)\	.	]	.
*	*	*	*v	*v
=77	=77	=77	=77
*ped	*	*	*
*	*	*	*^
4AA-	(<8A-'<L)	.	.	.
.	16r	.	.	.
.	16g-Jk	.	<	.
!	!LO:TX:a:i:t=ritenuto.	!	!	!
4c\ 4E-\	&(<12g-L	.	.	.
.	12a-	.	.	.
.	12g-J	.	.	<
4c 4E-	8fnL	.	.	.
.	8e-J	.	[	.
*	*	*	*v	*v
!!LO:PB:g=original
=78	=78	=78	=78
4AA-	2b-^</	.	.
4c 4G- 4E-	.	.	.
*Xped	*	*	*
!	!LO:TX:a:t=P:problem:w źródle jeden łuk nie ma zakończenia	!	!
4c 4G- 4E-	4a-&))	.	.
=79	=79	=79	=79
!	!LO:TX:a:t=a tempo	!	!
*ped	*	*	*
4AAA-'<	(<12fL	.	ff
.	12g-	.	.
!	!LO:TX:b:t=P:problem:'3' pod nutami	!	!
.	12fJ	.	.
4c 4G- 4E-	8e-L	.	.
.	8f	.	.
4c 4G- 4E-	8g-	.	.
.	8a-J	.	.
=80	=80	=80	=80
4AA-	8cc/)	.	.
.	8r	.	.
4c 4G- 4E-	(<2b-^>/	.	.
4c 4G- 4E-	.	.	.
=81	=81	=81	=81
4AA-	8A-'<L)	.	.
.	16r	.	.
.	(<16g-Jk	.	.
.	8qg-/	.	.
4c 4G- 4E-	(<12g-L	.	.
.	12a-	.	.
!	!LO:TX:b:t=P:problem:'3' pod nutami	!	!
.	12g-J)	.	.
*Xped	*	*	*
4c 4G- 4E-	8fL	.	.
.	8e-J	.	.
=82	=82	=82	=82
*ped	*	*	*
4DD-	8f)	.	.
.	8r	.	.
4A- 4F	4d-^>	.	.
*Xped	*	*	*
4A- 4F	4r	.	.
=83	=83	=83	=83
*ped	*	*	*
4GG-	(<12fL	.	pp
.	12g-	.	.
!	!LO:TX:b:t=P:problem:'3' pod nutami	!	!
.	12fJ	.	.
4B-- 4E-	8e-L	.	.
.	8f	.	.
*Xped	*	*	*
4B-- 4E-	8g-	.	.
.	8a-J	.	.
!!LO:LB:g=original
=84	=84	=84	=84
*ped	*	*	*
4GG-	8cc-)\	.	.
.	8r	.	.
4d- 4E-	(>2b--^>\	.	.
*Xped	*	*	*
4d- 4E-	.	.	.
=85	=85	=85	=85
*ped	*	*	*
4AA-	8A-'<L)	.	.
.	16r	.	.
.	(<16g-Jk	.	.
.	8qg-/	.	.
4cn 4G- 4E-	(<12g-L	.	.
.	12a-	.	.
!	!LO:TX:b:t=P:problem:'3' pod nutami	!	!
.	12g-J)	.	.
*Xped	*	*	*
4c 4G- 4E-	8f-L	.	.
.	8e-J	.	.
=86	=86	=86	=86
*ped	*	*	*
4DD-'<	8f-'<)	.	.
.	8r	.	.
4A- 4F-	4d-^<	.	.
*Xped	*	*	*
4A- 4F-	4r	.	.
=87	=87	=87	=87
!	!LO:TX:a:t=con forza	!	!
.	8qg#/	.	ff
*ped	*	*	*
4AAn'<	(<12g#yL	.	.
.	12an	.	.
!	!LO:TX:b:t=P:problem:'3' pod nutami	!	!
.	12g#J	.	.
4en 4c# 4F#	8f#L	.	.
.	8g#	.	.
4e 4c# 4F#	8a	.	.
.	8bnJ	.	.
=88	=88	=88	=88
4AAn	8dd#)\	.	.
.	8r	.	.
4en 4c# 4F#	(>2cc#^<	.	.
*Xped	*	*	*
4e 4c# 4F#	.	.	.
=89	=89	=89	=89
*ped	*	*	*
4BBn	8BnL)	.	.
.	16r	.	.
.	(<16anJk	.	.
.	8qa/	.	.
4d# 4An 4F#	&(<12aL	.	.
.	12bn	.	.
!	!LO:TX:b:t=P:problem:'3' pod nutami	!	!
.	12aJ&)	.	.
*Xped	*	*	*
4d# 4A 4F#	8g#L	.	.
.	8f#J	.	.
!!LO:LB:g=original
=90	=90	=90	=90
*ped	*	*	*
4EEn	8g#)	.	.
.	8r	.	.
4Bn 4G#	4en	.	.
*Xped	*	*	*
4B 4G#	4r	.	.
=91	=91	=91	=91
.	8qf-/	.	pp
!	!LO:TX:a:t=sotto voce	!	!
*ped	*	*	*
4GG-	(<4f-yT<	.	.
4B-- 4E-	8e-L	.	.
.	8f-	.	.
4B-- 4E-	8g-	.	.
.	8a-J)	.	.
=92	=92	=92	=92
4GG-	(>2cc-	.	>
4d- 4E-	.	.	.
*Xped	*	*	*
4d- 4E-	4b--)	.	.
=93	=93	=93	=93
*ped	*	*	*
4AA-\	8A-<L	.	.
.	16r	.	.
.	16g-^<Jk	.	.
4c 4G- 4E-	12g-L	.	.
.	12a-	.	.
!	!LO:TX:b:t=P:problem:'3' pod nutami	!	!
.	12g-J	.	.
*Xped	*	*	*
4r	8fnL	.	.
.	8e-J	.	.
=94	=94	=94	=94
*ped	*	*	*
!	!LO:TX:t=cresc_:problem:dynamics with extention lines	!	!
!	!	!	!LO:HP:b:t=cresc:ext=ud
4AA- 4AAA-\	8A-<L	.	<
.	16r	.	.
.	16b-Jk 16g-	.	.
4c 4G- 4E-	(<(<12b-/L 12g-/	.	.
.	12cc	.	.
!	!LO:TX:b:t=P:problem:'3' pod nutami	!	!
.	12b-J)	.	.
*Xped	*	*	*
4r	8a-L 8f	1 3	.
.	8g-J 8e-	2 4	.
=95	=95	=95	=95
*	*^	*	*
*ped	*	*	*	*
4AA-'< 4AAA-'<	8A-L)	4ryy	.	.
.	16r	.	.	.
.	16ee-Jk 16g-	.	.	.
4c 4G- 4E- 4AA-:	(>12ee-L	4g-^<	.	.
.	12ff	.	.	.
.	12ee-J)	.	.	.
*Xped	*	*	*	*
4r	(<8dd-L 8f/	4ryy	.	.
.	8ccJ 8e-	.	.	.
!!LO:LB:g=original
=96	=96	=96	=96	=96
*ped	*	*	*	*
4AA-'< 4AAA-'<	8A-'<)	4ryy	.	.
.	16r	.	.	.
.	(>16gg-'> 16b--'>	.	.	.
4g-: 4c: 4E-:	12gg-L	4b--^<	.	.
.	12aa-	.	.	.
!	!LO:TX:b:t=P:problem:'3' pod nutami	!	!	!
.	12gg-J	.	.	.
*Xped	*	*	*	*
4r	8ffL 8a-	4ryy	.	.
.	8ee-J 8g-)	.	.	.
*	*v	*v	*	*
=97	=97	=97	=97
*ped	*	*	*
4AA-'< 4AAA-'<	8r	.	[
.	16r	.	ff
.	(>16gg-^<KL	.	.
4g-: 4c: 4E-:	8..b--)	.	.
.	(>32gg-^<kk	.	.
4r	8..b--)	.	.
.	(>32gg-^<Jkk	.	.
=98	=98	=98	=98
2.r	8..b--L)	.	.
.	(>32gg-^<kk	.	.
.	8..b--)	.	.
.	(>32gg-^<kk	.	.
*Xped	*	*	*
.	8..a-)	.	>
.	(>32ffJkk	.	.
=99	=99	=99	=99
!	!LO:TX:a:t=accellerando	!	!
2.r	8..gnL)	.	.
.	(>32eenkk	.	.
.	8..g-)	.	.
.	(>32ee-kk	.	.
.	8..f)	.	.
.	(>32ddnJkk	.	.
=100	=100	=100	=100
2.r	8..f-\L)	.	.
!	!LO:TX:a:t=ritenuto	!	!
.	(>32dd-kk	.	.
.	8..e-)	.	.
.	(>32dd-kk	.	.
.	8..e-)	.	.
.	(>32dd-Jkk	.	.
!!LO:PB:g=original
=101	=101	=101	=101
*	*^	*	*
!	!LO:TX:a:t=a tempo	!	!	!
4FF'<	4.dd-	4.e-^<	.	.
4c 4F	.	.	.	.
.	8anL	8g-L	.	.
4c 4F	8dd-	8f	.	.
.	8aJ	8e-J	.	.
=102	=102	=102	=102	=102
4BB-	8.anL	8.e-^<L	.	.
.	16b-Jk	16d-Jk	.	.
4B- 4F	4b-'>)	4d-	.	.
4d- 4E-	4b-^>	4gn	.	.
=103	=103	=103	=103	=103
*ped	*	*	*	*
4AA-	(4.ff	4.a-	.	<
4g- 4A-	.	.	.	.
.	8ccL	8b--L	.	.
4g- 4A-	8ff	8a-	.	.
*Xped	*	*	*	*
.	8ccJ	8g-J	.	.
=104	=104	=104	=104	=104
4D-	8.ccL	8.g-L	.	.
.	16dd-Jk	16fJk	.	.
4d- 4A-	4dd-)	4f	.	.
4f 4Gn	4dd-^>	4bn	.	.
=105	=105	=105	=105	=105
*ped	*	*	*	*
4C	(4.aa-	4.cc	.	.
*clefG2	*	*	*	*
4b- 4c	.	.	.	.
.	8eenL	8dd-L	.	.
4b- 4c	8aa-	8cc	.	.
.	8eeJ	8b-J	.	.
*clefF4	*	*	*	*
=106	=106	=106	=106	=106
*^	*	*	*	*
4r	2.F	8.eenL	8.b-L	.	>
.	.	16ffJk	16anJk	.	]
4f 4c	.	4ff)	4a	.	.
4an 4c	.	4ryy	(>[>4fff [<4ff	.	<
.	.	.	.	.	[
*v	*v	*	*	*	*
*	*v	*v	*	*
!!LO:LB:g=original
=107	=107	=107	=107
*ped	*	*	*
4FF'<	8.fffL] 8.ff]	.	ff
.	16ggg-Jk 16gg-	.	.
*clefG2	*	*	*
4an 4e- 4c	4ggg-' 4gg-)	.	>
!	!	!	!LO:DY:b=2
4cc 4e-	4an^<	.	] p
*clefF4	*	*	*
=108	=108	=108	=108
*ped	*	*	*
4BB-'<	(>4.cc	.	.
4d- 4F	.	.	.
.	8b-)	.	.
*Xped	*	*	*
*	*Xtuplet	*	*
4d- 4F	(<12b-^<L/	.	.
.	12a-	.	.
.	12g-J)	.	.
*	*tuplet	*	*
=109	=109	=109	=109
*	*^	*	*
*ped	*	*	*	*
4BB-	(>4.dd-^>	8fL	.	.
.	.	8qa-/	.	.
!	!LO:TX:a:t=più agitato e stretto	!	!	!
.	.	8g-	.	.
4e- 4F	.	8f	.	.
.	8anL	8g-	.	.
4e- 4F	8dd-	8f	.	.
*Xped	*	*	*	*
.	8aJ	8e-J	.	.
=110	=110	=110	=110	=110
*ped	*	*	*	*
4BB-'<	8.anL	8.e-^<L	.	.
.	16b-Jk	16d-Jk	.	.
4B- 4F	4b-)	4d-	.	.
*	*Xtuplet	*	*	*
4d- 4E-	(>12b-L	4gn	.	>
*Xped	*	*	*	*
.	12cc	.	.	.
.	12b-J	.	.	]
*	*tuplet	*	*	*
=111	=111	=111	=111	=111
*ped	*	*	*	*
4AA-'<	4.ff^>	8a-L	.	.
.	.	8qcc-/	.	.
.	.	8b--	.	.
4g- 4c 4A-	.	8a-	.	.
.	8ccnL	8b--	.	.
4g- 4c 4A-	8ff	8a-	.	.
*Xped	*	*	*	*
.	8ccJ	8g-J	.	.
!!LO:LB:g=original
=112	=112	=112	=112	=112
*ped	*	*	*	*
4D-'>	8.ccL	8.g-L	.	.
.	16dd-Jk	16fJk	.	.
4d- 4A-	4dd-)	4f	.	.
*Xped	*	*	*	*
4f 4Gn	(>12dd-L	4bn	.	.
.	12ee-	.	.	.
.	12dd-J)	.	.	.
=113	=113	=113	=113	=113
*ped	*	*	*	*
4C'<	(>4.aa-	8ccL	.	.
.	.	8qee-/	.	.
.	.	8dd-	.	.
*clefG2	*	*	*	*
4b- 4gn 4c	.	8cc	.	.
.	8eenL	8dd-	.	.
4b- 4g 4c	8aa-	8cc	.	.
*Xped	*	*	*	*
.	8eeJ	8b-J	.	.
*clefF4	*	*	*	*
=114	=114	=114	=114	=114
*^	*	*	*	*
4r	2F	8.eenL	8.b-L	.	>
.	.	16ffJk	16anJk	.	]
4f 4c	.	4ff\)	4a	.	.
4ryy	4an: 4c: 4F:	4ryy	(>4fff 4ff	.	ff
*v	*v	*	*	*	*
*	*v	*v	*	*
=115	=115	=115	=115
*ped	*	*	*
4FF'<	8.aaa-XL 8.aa-X	.	.
.	16ggg-Jk 16gg-)	.	.
*clefG2	*	*	*
4cc 4an 4e- 4c^<	4ggg-'> 4gg-'>	.	.
*Xped	*	*	*
*clefF4	*	*	*
4e- 4c 4F	(<4an^<	.	.
=116	=116	=116	=116
*ped	*	*	*
4BB-	[>2.b-)/	.	.
4d- 4F	.	.	.
*Xped	*	*	*
4d- 4F	.	.	.
=117	=117	=117	=117
*ped	*	*	*
4BB-'<	(>8.b-L]	.	p
.	16ccJk	.	.
4e- 4B- 4G-	4cc)	.	.
*Xped	*	*	*
4e- 4B- 4G-	4cc^>	.	.
!!LO:LB:g=original
=118	=118	=118	=118
*ped	*	*	*
4BB-'<	(>8ccL	.	.
.	8dd-J)	.	.
4en 4B- 4Gn	[>2dd-^<	.	.
*Xped	*	*	*
4e 4B- 4G	.	.	.
=119	=119	=119	=119
*ped	*	*	*
4BB-'<	(>8.dd-L]	.	.
.	16ccJk	.	.
4en 4c 4Gn	4.cc^<	.	.
4e 4c 4G	.	.	.
*Xped	*	*	*
.	8b-	.	.
=120	=120	=120	=120
*ped	*	*	*
4BB-'<	(<8b-L	.	.
.	8g-J))	.	.
4f- 4d- 4G-X	2g-^<	.	.
*Xped	*	*	*
4f- 4d- 4G-	.	.	.
=121	=121	=121	=121
*ped	*	*	*
4BB-'<	(>8ccL	.	.
.	8b-J)	.	.
4e- 4c 4G-	(<4.b-^<\	.	.
4e- 4c 4G-	.	.	.
*Xped	*	*	*
.	8g-	.	.
=122	=122	=122	=122
.	8qa-/	.	.
*^	*	*	*
*ped	*	*	*	*
4rc	2.BB-	8g-^<L	.	.
.	.	8fJ	.	.
4d- 4F	.	2f^<)	.	.
*Xped	*	*	*	*
4d- 4F	.	.	.	.
*v	*v	*	*	*
=123	=123	=123	=123
*ped	*	*	*
4BB-'<	(>8ccL	.	.
.	8b-J)	.	.
4c 4B- 4G-	(>4.b-^<\	.	.
4c 4B- 4G-	.	.	.
*Xped	*	*	*
.	8e-	.	.
!!LO:PB:g=original
=124	=124	=124	=124
.	8qf/	.	.
*^	*	*	*
4rc	2.BB-	8e-^<L	.	.
.	.	8d-J	.	.
4B- 4F	.	2d-^<)	.	.
4B- 4F	.	.	.	.
*v	*v	*	*	*
=125	=125	=125	=125
*ped	*	*	*
4BB-'<	(>8.b-L	.	.
.	16ccJk	.	.
4e- 4B- 4G-	4cc'>)	.	.
*Xped	*	*	*
4e- 4B- 4G-	4cc^>	.	.
=126	=126	=126	=126
*ped	*	*	*
4BB-'<	(>8ccL	.	.
.	8dd-J)	.	.
4en 4B- 4Gn	[>2dd-^>	.	.
*Xped	*	*	*
4e 4B- 4G	.	.	.
=127	=127	=127	=127
*ped	*	*	*
4BB-'<	8.dd-L]	.	.
.	16ccJk	.	.
4en 4c 4Gn	(>4.cc^<	.	.
4e 4c 4G	.	.	.
*Xped	*	*	*
.	8b-	.	.
=128	=128	=128	=128
*ped	*	*	*
4BB-'<	8b-L	.	.
.	8g-J	.	.
4f- 4d- 4G-X	2g-^<)	.	.
*Xped	*	*	*
4f- 4d- 4G-	.	.	.
=129	=129	=129	=129
*ped	*	*	*
4BB-'<	(>8ccL	.	.
.	8b-J	.	.
!	!LO:TX:a:t=riten	!	!
4e- 4G-	4.b-^<	.	.
4e- 4G-	.	.	.
*Xped	*	*	*
.	8g-	.	.
!!LO:LB:g=original
=130	=130	=130	=130
.	8qa-/	.	.
*ped	*	*	*
4BB-'<	8g-L	.	.
.	8fJ	.	.
!	!LO:TX:a:t=P:problem:w źródle łuk kończy się odwrócony	!	!
4dn 4F	[<2f^<)	.	.
*Xped	*	*	*
4d 4F	.	.	.
=131	=131	=131	=131
*ped	*	*	*
4BB-'<	2.f_	.	>
4c 4An 4F	.	.	.
*Xped	*	*	*
4c 4A 4F	.	.	.
=132	=132	=132	=132
*ped	*	*	*
4BB-'<	2.f_	.	.
4dn 4B- 4F	.	.	.
*Xped	*	*	*
4d 4B- 4F	.	.	.
=133	=133	=133	=133
!	!LO:TX:a:t=calando	!	!
*ped	*	*	*
4BB-'<	(>8fL]/	.	pp
.	8ccJ	.	.
4e- 4An 4F	4.ddn^<	.	.
4e- 4A 4F	.	.	.
.	8cc	.	.
=134	=134	=134	=134
4e- 4An 4F	8ffL	.	.
.	8ccJ	.	.
4e- 4A 4F	4.ddn	.	.
4e- 4A 4F	.	.	.
*Xped	*	*	*
.	8cc)	.	.
=135	=135	=135	=135
*ped	*	*	*
4BB-'<	(>8ccL	.	.
.	8b-J	.	.
4e- 4B- 4G-	4.b-^<\	.	.
4e- 4B- 4G-	.	.	.
*Xped	*	*	*
.	8g-	.	.
!!LO:LB:g=original
=136	=136	=136	=136
.	8qa-/	.	.
*ped	*	*	*
4BB-'<	8g-L	.	.
.	8fJ	.	.
!	!LO:TX:a:t=P:problem:w źródle łuk kończy się odwrócony	!	!
4dn 4B- 4F	[<2f^<)	.	.
*Xped	*	*	*
4d 4B- 4F	.	.	.
=137	=137	=137	=137
*ped	*	*	*
4BB-	(>8fL]/	.	pp
.	8ccJ	.	.
4e- 4An 4F	4.ddn	.	.
4e- 4A 4F	.	.	.
.	8cc	.	.
=138	=138	=138	=138
4e- 4An 4F	8ffL	.	.
.	8ccJ	.	.
4e- 4A 4F	4.ddn	.	.
4e- 4A 4F	.	.	.
*Xped	*	*	*
.	8cc)	.	.
=139	=139	=139	=139
*ped	*	*	*
4BB-	(>8ccL	.	.
.	8b-J	.	.
4f- 4d- 4G-	4.b-^<	.	.
4f- 4d- 4G-	.	.	.
.	8g-)	.	.
=140	=140	=140	=140
!	!LO:TX:a:t=mancando	!	!
!	!	!	!LO:DY:b=2
(>4f-'> 4d-'> 4G-'>	2.r	.	pp
4f-'> 4d-'> 4G-'>	.	.	.
*Xped	*	*	*
4en'> 4c#'> 4G-X'>)	.	.	.
=141	=141	=141	=141
.	8qa-/	.	.
!	!LO:TX:a:t=sempre rallent:dur=6q:ext=s:problem:text with extention lines	!	!
*ped	*	*	*
4BB-	8g-L	.	.
.	8fJ	.	.
4dn 4F	[<2f^<	.	.
4d 4F	.	.	.
!!LO:LB:g=original
=142	=142	=142	=142
4dn 4F	2.f_	.	.
4d 4F	.	.	.
*Xped	*	*	*
4d 4F	.	.	.
=143	=143	=143	=143
*ped	*	*	*
4FF'<	2.f]	.	.
4c 4An 4F	.	.	.
*Xped	*	*	*
4c 4A 4F	.	.	.
=144	=144	=144	=144
*ped	*	*	*
4DDn'<	[<2.f^>	.	.
4dn 4An 4F	.	.	.
*Xped	*	*	*
4d 4A 4F	.	.	.
=145	=145	=145	=145
*	*	*	*^
*ped	*	*	*	*
4BBB-'<	2.f_	.	fz	p
4dn 4B- 4Dn	.	.	.	.
4d 4B- 4D	.	.	.	.
*	*	*	*v	*v
=146	=146	=146	=146
4dny 4B- 4Dny	2.f]	.	.
!	!LO:TX:a:t=smorzando	!	!
4d 4B- 4D	.	.	.
4d 4B- 4D	.	.	.
=147	=147	=147	=147
2.r	(<8cc/L	.	.
.	8b-J	.	.
.	4.b-/	.	.
.	8g-	.	.
=148	=148	=148	=148
.	8qa-/	.	.
2.r	8g-^<L	.	.
.	8fJ	.	.
.	2f^<;)	.	.
!	!LO:TX:a:t=fine	!	!
.	.	.	.
==	==	==	==
*-	*-	*-	*-
!!title: @{OTL}; @{OPS} @{ONM} publisher: @{PPR}
!!!RDF**kern: > = above
!!!RDF**kern: < = below
!!!RDF**dynam: < = "cresc", fontstyle= "normal"
!!!RDF**dynam: > = "dim", fontstyle= "normal"
!!!RDF**kern: N = linked
!!!RDF**kern: i = editorial accidental, bracket
!!!ENC: Wojciech Jakubiak-Danek
!!!END: 2018-12-28
!!!rism-genre: Mazurka
!!!rism-key: B-flat minor
!!!rism-opus: op. 24, no. 4
!!!rism-title: Mazurka in B-flat minor op. 24, no. 4
!!!rism-permalink: https://opac.rism.info/search?id=1001066063&View=rism
!!!rism-773a-OPR: 1001066057
!!!rism-parent-permalink: https://opac.rism.info/search?id=1001066057&View=rism
